X: 12419
T: Far From Home
R: reel
M: 4/4
K: Gmajor
GEDE ~G3A|B2BA BcdB|GEDE GABG|~A3B AGEF|
GEDE ~G3A|B2BA Bcdg|~e3f gedc|BGAF G4:|
~g3e~f3d|e2 ef edBd|gedB GABG|~A3B AGEF|
GEDE ~G3A|B2BA Bcdg|~e3f gedc|BGAF G4:|

